X:1
T:We Would See Jesus
T:We Would See Jesus
T:Jay Arthur Ford
T:Lizzie DeArmond, 1903
T:Public Domain Courtesy of the Cyber Hymnal™
T:Public Domain Courtesy of the Cyber Hymnal™
C:Jay Arthur Ford
Z:Public Domain
Z:Courtesy of the Cyber Hymnal™
%%score ( 1 2 ) ( 3 4 )
L:1/8
Q:1/4=90
M:4/4
K:Bb
V:1 treble 
V:2 treble 
V:3 bass 
V:4 bass 
V:1
 [DF]2 [^CG][C=E] [DF]2 [DB][FB] | [Ec]2 [EG][EA] [DB]2 [DF]2 | [EG]2 [EA][EB] F2 [FB][Fd] | %3
w: 1.~We would see Je- sus, the|babe in the man- ger,|Come to the world on this|
w: 2.~We would see Je- sus, the|Son of the High- est;|An- gels with rap- ture His|
w: 3.~We would see Je- sus; in|realms of the bless- èd|Some day be- fore Him the|
 [=Ec]2 [EG][Ed] [Fc]4 | [Fd]2 [EA][Ec] [DB]2 [DF][DF] | ([EG][FA])[GB][Gc] [^Fd]2 [Gd]2 | %6
w: glad Christ- mas morn,|Fall down be- fore Him with|shep- * herds and wise men,|
w: prais- es re- peat;|Tho’ so un- wor- thy, we|come * with re- joic- ing,|
w: ran- somed shall stand,|See- ing His face in its|glor- * i- ous beau- ty,|
 [Ge]2 [Fc][Fc] [Fd]2 [FB][Fd] | [=Ec]2 [_EA][EF] [DB]4 ||"^Refrain" [DF]2 [^C=E][CG] [DF]2 [DB]2 | %9
w: Giv- ing our love to the|King new- ly born.||
w: Bring- ing our trea- sures to|lay at His feet.|We would see Je- sus,|
w: Wear- ing a crown in that|par- a- dise land.||
 [GB]2 [^FA][Ac] [GB]2 [EG]2 | [DF]2 [FB][Fc] [Fd]2 [Fd]2 | [=Ed]2 [EG][Ed] [Fc]4 | %12
w: |||
w: we would see Je- sus,|Wor- ship the King we|love and a- dore,|
w: |||
 [Fd]2 [EA][Ec] [DB]2 F2 | [=Ec]2 [EG][Ec] [_EB]2 [FA]2 | [FB]2 [Fc][Fc] [Fd][_Af][Ge][Gc] | %15
w: |||
w: Born un- to us one|glad Christ- mas morn- ing;|To His dear name be praise for-|
w: |||
 [FB]2 [EA]2 [DB]4 |] %16
w: |
w: ev- er- more!|
w: |
V:2
 x8 | x8 | x4 F2 x2 | x8 | x8 | x8 | x8 | x8 || x8 | x8 | x8 | x8 | x6 F2 | x8 | x8 | x8 |] %16
V:3
 [B,,B,]2 [B,,=E,][B,,G,] [B,,B,]2 [B,,F,][D,B,] | [F,A,]2 [F,B,][F,C] [B,,B,]2 [B,,B,]2 | %2
 [E,B,]2 [E,A,][E,G,] [D,B,]2 [D,B,][B,,B,] | [C,B,]2 [C,B,][C,B,] [F,A,]4 | %4
 [B,,B,]2 [B,,F,][B,,F,] [B,,F,]2 [B,,B,][B,,B,] | (B,C)[E,B,][E,G,] [D,A,]2 [G,=B,]2 | %6
 [C,C]2 [F,A,][F,A,] [B,,B,]2 [D,B,][B,,B,] | [C,B,]2 [F,C]F, [B,,F,]4 || %8
 z [B,,B,][B,,B,][B,,B,] [B,,B,]2 [B,,B,]2 | z [E,B,][E,B,][E,B,] [E,B,]2 [E,B,]2 | %10
 [B,,B,]2 [D,B,][F,A,] B,2 [B,,B,]2 | [C,B,]2 [C,B,][C,B,] [F,A,]4 | %12
 [B,,B,]2 [B,,F,][B,,F,] [B,,F,]2 [D,B,]2 | [C,B,]2 [C,B,][C,B,] [F,C]2 C2 | %14
 [D,B,]2 [F,A,][F,A,] B,[D,B,][E,B,][E,E] | [F,D]2 [F,C]2 [B,,B,]4 |] %16
V:4
 x8 | x8 | x8 | x8 | x8 | E,2 x6 | x8 | x3 F, x4 || x8 | x8 | x4 B,2 x2 | x8 | x8 | x6 (F,E,) | %14
 x4 B, x3 | x8 |] %16

